X:1
T:titulo
T:1/3
T:W. A. Mozart (1756 - 1791)
T:6  NOTTURNI
T:2.  SE LONTAN BEN MIO (KV 438)
T:Copyright
T:Copyright
T:Copyright
T:Copyright
T:Copyright
T:Copyright
C:W. A. Mozart
Z:Copyright
%%score [ 1 2 3 ] { ( 4 5 ) | 6 }
L:1/8
Q:1/4=55
M:4/4
K:Eb
V:1 treble nm="Soprano" snm="S."
V:2 treble nm="Mezzo-Soprano" snm="MS."
V:3 bass nm="Bass" snm="B."
V:4 treble nm="Piano" snm="Pno."
V:5 treble 
V:6 bass 
V:1
"^Adagio"!mf!"^Adagio" G2 FG E2!<(! FG!<)! |!>(! BA AG G2!>)! F2 | z4!<(! E2 B2!<)! | %3
w: Se lon- * tan ben _|mio _ tu _ se- i|son e-|
!>(! e2 d2 c2 B2!>)! | (=A4 _A2) Bc |!<(! Be!<)! c!>(!A G2 F2 | E4!>)! z2!p! EF | (A2 _G4) G2 | %8
w: ter- ni‿i dì per|me, _ son e-|ter- * ni i dì per|me, se lon-|tan _ tu|
 _G2 F2 z FGA | (A_G-G)G"^rit." F/G/F/G/ A/G/F/E/ | (_G4 !fermata!F4) | %11
w: se- i son _ e-|ter- * * ni‿i dì _ _ _ per _ _ _|me! _|
!f!"^a tempo" !courtesy!=G2 F/B/A/F/!<(! E2 FG!<)! |!>(! BA AG G2 F2!>)! | GA Bc cB AG | %14
w: Son mo- * * * men- ti‿i _|gior- * ni _ mie- i|i- * dol _ mio, _ vi- *|
 FG AB (A2 G) z | GA Bc cB AG |!>(! BA GF E2!>)! z2 | z4 z2!p! G2 | A2 F2 G2 z2 | z4 z2!pp! G2 | %20
w: ci- * no‿a _ te, _|i- * dol _ mio, _ vi- *|ci- * no‿a- * te,|vi-|ci- no‿a te,|vi-|
 A2 F2 E2 z2 |] %21
w: ci- no‿a te.|
V:2
!mf! E2 D2 C2!<(! DE!<)! |!>(! GF FE E2 D2!>)! | z4!<(! G2 F2!<)! |!>(! E2 E2 E2 E2!>)! | %4
w: Se lon- tan ben _|mio _ tu _ se- i|son e-|ter- ni‿i dì per|
 E4 z FGA |!<(! G2!<)! A!>(!F E2 D2 | E4!>)! z4 | E2 E2 E2 E2 | E2 D2 z2 DD | E2 E2 E2 E2 | %10
w: me, son _ e-|ter- ni i dì per|me,|se lon- tan tu|se- i son e-|ter- ni‿i dì per|
 (E4 !fermata!D4) |!f! E2 D2!<(! C2 DE!<)! |!>(! GF FE E2 D2!>)! | E2 E2 E2 E2 | DE FG (F2 E) z | %15
w: me! _|Son mo- men- ti‿i _|gior- * ni _ mie- i|i- dol mio, vi-|ci- * no‿a _ te, _|
 E2 E2 E2 E2 |!>(! GF ED E2!>)! z2 | z4 z2!p! E2 | F2 D2 E2 z2 | z4 z2!pp! E2 | F2 D2 E2 z2 |] %21
w: i- dol mio, vi-|ci- * no‿a- * te,|vi-|ci- no‿a te,|vi-|ci- no‿a te.|
V:3
!mf! E,2 B,,=B,, C,2 z2 | z !courtesy!_B,,D,E, B,2 B,,2 | E,2 B,2!<(! E2 D2!<)! | %3
w: Se lon- * tan|ben mio tu se- i|son e- ter- ni,e-|
!>(! C2 B,2 A,2 _G,2!>)! | F,4 D,3 D, |!<(! E,2!<)! A,2!>(! B,2 B,,2!>)! | !breath!E,4!p! _G,3 G, | %7
w: ter- ni‿i dì per|me, son e-|ter- ni‿i dì per|me, se lon-|
 _C4 =A,4 | B,4 B,2 B,2 | _C3 C =A,3 A, | !fermata!B,8 |!f! E,2 B,,=B,,!<(! C,2 C,2!<)! | %12
w: tan tu|sei son e-|ter- ni‿i dì per|me!|Son mo- * men- ti|
!>(! z !courtesy!_B,,D,E, B,2 B,2!>)! | E,F, G,A, A,G, F,E, | B,2 B,,2 E,2 z2 | %15
w: i gior- ni mie- i|i- * dol _ mio, _ vi- *|ci- no‿a te,|
 E,F, G,A, A,G, F,E, |!>(! B,2 B,,2 E,2!>)! z B,, | E,2 G,2 B,3 B, | B,,3 B,, E,2 z!pp! B,, | %19
w: i- * dol _ mio, _ vi- *|ci- no‿a- te, vi-|ci- no‿a te, vi-|ci- no‿a te, vi-|
 E,2 G,2 B,3 B, | B,,3 B,, E,2 z2 |] %21
w: ci- no‿a te, vi-|ci- no‿a te.|
V:4
!mf! (G2 FG) (E2 FG) | (BA)(AG) G2 F2 | z4 E2 B2 | (e2 d2 c2 B2) | (=A4 _A2 Bc) | %5
!<(! (BecA)!<)! (GBAF) | E4 z4 | z2 (._G2 .G2 .G2) | (_G2 F2) z4 | z2 (._G2"^rit." .G2 .G2) | %10
 (_G4 !fermata!F4) |!f!"^a tempo" !courtesy!=G2 (F/B/A/F/) (E2 FG) | (BA)(AG) G2 F2 | %13
 (GABc) (cBAG) | (FGAB) (A2 G) z |!pp! (GABc) (cBAG) | (BAGF) E2 z2 | z8 | z8 | z4 z2!pp! (g2 | %20
 a2 d2 e2) z2 |] %21
V:5
 E2 D2 (C2 DE) | (GF)(FE) E2 D2 | x4 G2 F2 | E8- | E4 F2 GA | (G2 AF) (EGFD) | E4 x4 | %7
 x2 (.E2 .E2 .E2) | (E2 D2) x4 | x2 (.E2 .E2 .E2) | (E4 !fermata!D4) | E2 D2 (C2 DE) | %12
 (GF)(FE) E2 D2 | E8 | (DEFG) (F2 E) x | E8 | (GFED) E2 x2 | x8 | x8 | x6 e2 | d2 A2 G2 x2 |] %21
V:6
 E,2 (B,,=B,,)!<(! C,2 z2!<)! |!>(! z (!courtesy!_B,, D,E,)!>)! B,2 B,,2 | E,2 B,2!<(! E2 D2!<)! | %3
 (C2 B,2 A,2 _G,2) | F,4 D,4 | E,2 A,,2 B,,2 B,,2 | E,4!p! (_G,,4 | _C,4 =A,,4) | B,,4 B,,2 B,,2 | %9
 (_C,4 =A,,4) | !fermata!B,,8 | E,2 (B,,=B,,) C,2 z2 | z (!courtesy!_B,,D,E,) B,2 B,,2 | %13
 (E,F,G,A,) (A,G,F,E,) | B,2 B,,2 E,2 z2 | (E,F,G,A,) (A,G,F,E,) |!>(! B,2 B,,2 E,2!>)! z2 | z8 | %18
 z4 z2 (B,,2 | E,2 G,2 B,4) | (B,,4 E,2) z2 |] %21

